X: 1
T: Sk\"anklek efter Lars He'en
O: Swedish, from Dave Kaynor
R: march
S: https://www.dropbox.com/sh/4m1cambqh154zm4/AACHI-rM_iITVxKEQhnAw2Qqa/2020All?dl=0&preview=Skänklek+efter+Lars+He%27en.pdf&subfolder_nav_tracking=1
S: https://www.natunelist.net/ska%CC%88nklek-efter-lars-heen/
Z: 2021 John Chambers <jc:trillian.mit.edu>
M: C|
L: 1/8
K: G
D2 |\
"G"G3F G2A2 | B3B c2B2 | "D"A3G A2B2 | "G"G4 "(D)"D4 |\
"G"G3A B2c2 | d4 d4 | "Am"A3B "D7"c2d2 | "G"B6 :|
|: Bc |\
"G"d2d2 d2cd | "C"e4 e2d2 | "Am"c3B c2A2 | "D7"d6 d2 |\
"G"d2de "C"c2B2 | "D7"A2d2 c2A2 | "G"G4 "D7"F2DF | "G"G6 :|
